X:1
T:[ID 2-55a]
T:[ID 2-55a]
T:Bezeichnung standardisiert: Englischer oder demi Chaine; Engl. oder demi Chaine 23. In dieser Quelle auch als: Engl.
T:Urheber unbekannt Datum in der hier transkribierten schriftlichen Quelle: 1775
C:Urheber unbekannt
C:Datum in der hier transkribierten schriftlichen Quelle: 1775
L:1/8
M:2/4
K:G
V:1 treble 
V:1
 B3 d | (3cde E2 | (3def FA | B/A/B/c/ B2 | B3 d | (3cde E2 | (3def FA | B2 B2 :: B3 c | %9
 AG/F/ GB, | B3 c | AG/F/ G2 | B3 d | (3cde E2 | (3def FA | B2 B2 :|[M:3/4]"^Trio" !fermata!B,3 F | %17
 GB,B,G | AFDC | B,/A,/B,/C/ B,2 | B,3 F | GB,B,G | AFDC | B,2 B,2 :: B,2 B2 | BA/G/ A2 | B,2 A2 | %27
 AG/F/ G2 | B,3 F | GB,B,G | AFDC | B,2 B,2 :| %32

